X:73
T: ES HATTEN DREI GESELLEN
N: B0559
O: Europa, Mitteleuropa, Deutschland
R: Studenten -, Trink - Lied
M: 4/4
L: 1/8
K: G
D2 | B3BAcBA | G4D2
GA | B3BG2F2 | E4z2
GA | B2BBB2AB | d4c2
BB | A2A2A2GA | B4z2
GA | B2BBe2ee | d4c2
Bc | d2GAB2AA | G4z2

@@@ Tune index: 2291
